!!!COA:	Josquin des Prez
!!!CDT:	~1450-1521/08/27
!!!COM: Moulu
!!!OPR:	Missa Missus est Gabriel Angelus
!!!ONM:	3
!!!OTL:	Credo
!!!AGN:	Mass; Credo
!!!SCT:	NJE 10.2
!!!SCA:	New Josquin Edition 10.2
!!!voices: 4
!!!voices-OPR:	4
**kern	**kern	**kern	**kern
*staff4	*staff3	*staff2	*staff1
*Ivox	*Ivox	*Ivox	*Ivox
*I"Bassus	*I"Tenor	*I"Altus	*I"Superius
*I'B	*I'T	*I'A	*I'S
*clefF4	*clefGv2	*clefGv2	*clefG2
*k[b-]	*k[b-]	*k[b-]	*k[b-]
*>[A,B]	*>[A,B]	*>[A,B]	*>[A,B]
*>Credo[A]	*>Credo[A]	*>Credo[A]	*>Credo[A]
*>Crucifixus[B]	*>Crucifixus[B]	*>Crucifixus[B]	*>Crucifixus[B]
*>A	*>A	*>A	*>A
*M2/1	*M2/1	*M2/1	*M2/1
*met(C|)	*met(C|)	*met(C|)	*met(C|)
=1-	=1-	=1-	=1-
!!section: Patrem
!!!OMD: Patrem
0GG	0G	0d	0g
=2	=2	=2	=2
0D	1.A	0d	1.f
.	2B-\	.	2g/
=3	=3	=3	=3
1C	1c	1e	1a
1BB-	1d	1f	1b-
=4	=4	=4	=4
1C	2.c\	1e	2a/
.	.	.	1g
.	4B-\	.	.
1D	1A	1d	.
.	.	.	2f#i/
=5	=5	=5	=5
2GG/	2G/	0d	0g
2G\	2B-\	.	.
2G\	2B-\	.	.
2G\	2B-\	.	.
=6	=6	=6	=6
2F\	2A/	0r	0r
2D\	2A/	.	.
2G\	2B-\	.	.
2E\	2c\	.	.
=7	=7	=7	=7
2D\	1.d	0r	0r
2G\	.	.	.
2F\	.	.	.
2D\	2d\	.	.
=8	=8	=8	=8
2E\	2c\	0r	0r
2F\	2A/	.	.
2G\	2B-\	.	.
2E\	2c\	.	.
=9	=9	=9	=9
2D\	2d\	0r	0r
2G\	2B-\	.	.
2F\	2A/	.	.
2D\	2d\	.	.
=10	=10	=10	=10
2E\	2c\	0r	0r
2C/	2A/	.	.
2.D\	2B-\	.	.
.	[2A/	.	.
4C/	.	.	.
=11	=11	=11	=11
2BB-/	2A/]	0r	0r
2C/	1G	.	.
1AA	.	.	.
.	2F#i/	.	.
=12	=12	=12	=12
2GG/	2G/	1.d	1.b-
1G	1B-	.	.
2G\	2G/	2d\	2b-\
=13	=13	=13	=13
2D\	2A/	2d\	2a/
2D\	2B-\	2d\	2f/
2E\	2G/	2B-\	2g/
2E\	2G/	2c\	2g/
=14	=14	=14	=14
1D	1A	1d	1f
1D	1A	1d	2r
.	.	.	2f/
=15	=15	=15	=15
1G	1B-	1d	1g
1F	1c	1f	1a
=16	=16	=16	=16
1.BB-	1d	1f	1b-
.	[1B-	[1d	2r
2BB-/	.	.	2b-\
=17	=17	=17	=17
2BB-/	2B-\]	2d\]	2b-\
2BB-/	2B-\	2d\	2b-\
2F\	2c\	2f\	2a/
2D\	2d\	2f\	2f/
=18	=18	=18	=18
2G\	2B-\	2d\	2g/
2F\	2c\	2f\	2a/
2BB-/	2d\	2f\	2b-\
[2F\	2c\	[2f\	[2a/
=19	=19	=19	=19
4F\]	2B-\	4f\]	4a/]
4G\	.	4e\	4g/
2E\	2G/	2c\	1g
1D	1A	1d	.
.	.	.	2f#i/
=20	=20	=20	=20
0GG	0G	1d	0g
.	.	2r	.
.	.	2g\	.
=21	=21	=21	=21
0r	0r	2g\	2r
.	.	2f\	2dd\
.	.	2d\	2dd\
.	.	[2f\	2cc\
=22	=22	=22	=22
0r	0r	2f\]	2a/
.	.	4e\	1dd
.	.	4d\	.
.	.	1e	.
.	.	.	2cc#i\
=23	=23	=23	=23
0r	0r	2d\	1dd
.	.	2g\	.
.	.	2f\	2r
.	.	2d\	2dd\
=24	=24	=24	=24
1r	0r	2e\	2cc\
.	.	2f\	2a/
1BB-	.	1d	2b-\
.	.	.	2b-\
=25	=25	=25	=25
2C/	0r	2.c\	2a/
2C/	.	.	2.g/
.	.	4B-\	.
1D	.	1A	.
.	.	.	8f#i/L
.	.	.	8e/J
.	.	.	2f#i/
=26	=26	=26	=26
2E-\	2r	0G	1g
2E-i\	2B-\	.	.
2C/	2c\	.	1r
2E-i\	2c\	.	.
=27	=27	=27	=27
2D\	2d\	2r	2r
2D\	2d\	2A/	2f/
2GG/	2B-\	2d\	2g/
2G\	2B-\	2d\	2g/
=28	=28	=28	=28
2F\	2c\	2f\	2a/
2D\	2d\	2f\	2a/
2G\	2G/	2d\	2b-\
2F\	2A/	2d\	[2a/
=29	=29	=29	=29
2E-\	2B-\	1e-	4a/]
.	.	.	4g/
2C/	2c\	.	1g
1D	1A	1d	.
.	.	.	2f#i/
=30	=30	=30	=30
1GG	1G	0d	1g
2r	1r	.	1r
2BB-/	.	.	.
=31	=31	=31	=31
2C/	2r	0r	0r
2D\	2F/	.	.
2E\	2G/	.	.
2C/	2A/	.	.
=32	=32	=32	=32
2D\	2B-\	0r	0r
2GG/	2G/	.	.
[1D	2A/	.	.
.	2D/	.	.
=33	=33	=33	=33
2D\]	2F/	0r	0r
2E\	2G/	.	.
2F\	2A/	.	.
2D\	2B-\	.	.
=34	=34	=34	=34
2E\	2G/	0r	0r
2.F\	2.A/	.	.
4E\	4G/	.	.
[2D\	2F/	.	.
=35	=35	=35	=35
2D\]	1E	0r	0r
2C#i/	.	.	.
[1D	1D	.	.
=36	=36	=36	=36
1D]	2r	0r	0r
.	2D/	.	.
2r	2E/	.	.
2D\	2F/	.	.
=37	=37	=37	=37
2E\	2G/	0r	0r
2F\	2A/	.	.
2D\	2B-\	.	.
2E\	[2c\	.	.
=38	=38	=38	=38
1C	4c\]	0r	0r
.	4B-\	.	.
.	4A/	.	.
.	4G/	.	.
2.D\	2B-\	.	.
.	[2A/	.	.
4C/	.	.	.
=39	=39	=39	=39
2BB-/	4A/]	1r	0r
.	4G/	.	.
4AA/	1G	.	.
4GG/	.	.	.
1AA	.	2.c\	.
.	2F#i/	.	.
.	.	4c\	.
=40	=40	=40	=40
1GG	1G	2B-\	2.g/
.	.	2c\	.
.	.	.	4g/
1r	1r	2d\	2f/
.	.	2e-i\	2g/
=41	=41	=41	=41
2.D\	1r	1d	2a/
.	.	.	2b-\
4D\	.	.	.
2C/	2.A/	1r	1a
2D\	.	.	.
.	4A/	.	.
=42	=42	=42	=42
2E\	2G/	0r	0r
2F\	2A/	.	.
2D\	2B-\	.	.
4C/	[2c\	.	.
4D\	.	.	.
=43	=43	=43	=43
4E\	2c\]	0r	1r
4F\	.	.	.
1G	2B-\	.	.
.	1A	.	2r
2F#i\	.	.	2a/
=44	=44	=44	=44
1G	1G	2r	2.b-\
.	.	2d\	.
.	.	.	4a/
1r	1r	2.e-i\	2g/
.	.	.	2f/
.	.	4d\	.
=45	=45	=45	=45
1r	1r	2c\	4e/
.	.	.	4d/
.	.	2B-\	1g
1D	1d	1A	.
.	.	.	2f#i/
=46	=46	=46	=46
2.E-i\	2.c\	1G	1g
4D\	4B-\	.	.
2C/	2A/	1r	1r
2BB-/	[2G/	.	.
=47	=47	=47	=47
1AA	2G/]	1r	2r
.	2F#i/	.	2cc\
1GG	1G	2r	2b-\
.	.	2g\	2g/
=48	=48	=48	=48
0r	1r	2f\	2a/
.	.	2d\	1dd
.	2r	2e-i\	.
.	2c\	2e-i\	2cc\
=49	=49	=49	=49
2r	2B-\	1d	1dd
2G\	2G/	.	.
2F\	2A/	1r	1r
2D\	[2d\	.	.
=50	=50	=50	=50
2E-i\	2d\]	0r	0r
2E-i\	2c\	.	.
1D	1d	.	.
=51	=51	=51	=51
0F	0c	0f	0a
=52	=52	=52	=52
1F	1c	1f	1a
1F	1c	1f	1a
=53	=53	=53	=53
0BB-	0d	0f	0b-
=54	=54	=54	=54
1F	1c	1f	1a
1G	1B-	1e	1g
=55	=55	=55	=55
0D	0A	0d	[0f
=56	=56	=56	=56
1r	1r	0r	0f]
1D	1d	.	.
=57	=57	=57	=57
1.E-i	1.c	0r	0r
2D\	2B-\	.	.
=58	=58	=58	=58
2C/	2A/	1r	1r
2BB-/	1G	.	.
1AA	.	1c	1a
.	2F#i/	.	.
=59	=59	=59	=59
0GG	0G	1B-	1.b-
.	.	1B-	.
.	.	.	2a/
=60	=60	=60	=60
0C	1.E	1c	2g/
.	.	.	2f/
.	.	2.G/	1e
.	2F/	.	.
.	.	4A/	.
=61	=61	=61	=61
0GGl	0Gl	0B-l	0dl
!!LO:LB:i:g=z
=62||	=62||	=62||	=62||
*>B	*>B	*>B	*>B
!!section: Crucifixus
!!!OMD: Crucifixus
*M2/1	*M2/1	*M2/1	*M2/1
*met(C|)	*met(C|)	*met(C|)	*met(C|)
1D	1A	1d	1f
2D\	2A/	2d\	2f/
2D\	2A/	2d\	2f/
=63	=63	=63	=63
2G\	2B-\	2d\	2g/
2G\	2B-\	2e\	2g/
2F\	2c\	2f\	2a/
2BB-/	[2d\	2f\	[2b-\
=64	=64	=64	=64
1F	4d\]	1f	4b-\]
.	4c\	.	4a/
.	1c	.	1a
1G	.	1e	.
.	2B-\	.	2g/
=65	=65	=65	=65
0F	1c	0f	1a
.	2r	.	2r
.	2A/	.	2f/
=66	=66	=66	=66
0r	2B-\	0r	2g/
.	2c\	.	2a/
.	2.G/	.	2b-\
.	.	.	4a/
.	4A/	.	4g/
=67	=67	=67	=67
0r	4B-\	1d	2f/
.	4c\	.	.
.	4d\	.	2b-\
.	4B-\	.	.
.	2.c\	1e-	2a/
.	.	.	[2g/
.	4B-\	.	.
=68	=68	=68	=68
1D	1A	1d	2g/]
.	.	.	2f#i/
1E-	1G	1B-	1g
=69	=69	=69	=69
1D	0r	1.d	1a
1BB-	.	.	1b-
.	.	2B-\	.
=70	=70	=70	=70
1F	1A	1c	1a
2.D\	1B-	1d	1f
4E\	.	.	.
=71	=71	=71	=71
2F\	2A/	2c\	2.a/
2D\	2F/	2.d\	.
.	.	.	8g/L
.	.	.	8a/J
2G\	2G/	.	2b-\
.	.	4e\	.
2F\	2A/	2f\	[2a/
=72	=72	=72	=72
1G	2B-\	2d\	2a/]
.	2G/	2e\	1g
1D	1A	1d	.
.	.	.	2f#i/
=73	=73	=73	=73
1GG	0G	2r	[0g
.	.	2d\	.
2r	.	2d\	.
2G\	.	2d\	.
=74	=74	=74	=74
2G\	0r	2B-\	0g]
2G\	.	2G/	.
2E\	.	2r	.
2C/	.	2G/	.
=75	=75	=75	=75
2r	0r	2A/	0r
2C/	.	2c\	.
2D\	.	2B-\	.
2F\	.	2A/	.
=76	=76	=76	=76
2E\	0r	2c\	0r
2D\	.	2B-\	.
1F	.	2A/	.
.	.	[2c\	.
=77	=77	=77	=77
2E\	0r	2c\]	0r
2D\	.	2B-\	.
1F	.	2A/	.
.	.	[2d\	.
=78	=78	=78	=78
1E	2r	2d\]	0r
.	2G/	2c#i\	.
2D\	2.B-\	[1d	.
2GG/	.	.	.
.	4c\	.	.
=79	=79	=79	=79
2.BB-/	2d\	1d]	0r
.	2D/	.	.
4C/	.	.	.
2D\	2.F/	1r	.
2E\	.	.	.
.	4G/	.	.
=80	=80	=80	=80
2.F\	2A/	0r	0r
.	2B-\	.	.
4G\	.	.	.
2A\	2c\	.	.
[2B-\	[2d\	.	.
=81	=81	=81	=81
4B-\]	4d\]	1r	1r
4A\	4c\	.	.
1G	2B-\	.	.
.	1A	1c	1a
2F#i\	.	.	.
=82	=82	=82	=82
1G	1G	2B-\	2.b-\
.	.	2B-\	.
.	.	.	4a/
1r	1r	2c\	2g/
.	.	2d\	2f/
=83	=83	=83	=83
1r	2r	2B-\	2g/
.	2A/	2c\	2e/
2r	2.B-\	1d	1d
2D\	.	.	.
.	4A/	.	.
=84	=84	=84	=84
2.E-i\	2G/	0r	0r
.	2F/	.	.
4D\	.	.	.
2C/	4E/	.	.
.	4D/	.	.
2BB-/	[2G/	.	.
=85	=85	=85	=85
2C/	2G/]	1r	2r
2AA/	2F#i/	.	2a/
1GG	1G	1d	2.b-\
.	.	.	4a/
=86	=86	=86	=86
0r	0r	2.e-i\	2g/
.	.	.	2f/
.	.	4d\	.
.	.	2c\	4e/
.	.	.	4d/
.	.	2B-\	[2g/
=87	=87	=87	=87
1r	1r	2c\	2g/]
.	.	2A/	2f#i/
2r	1B-	2G/	2g/
2G\	.	2d\	2b-\
=88	=88	=88	=88
2F\	2c\	2f\	2a/
2A\	2c\	2e\	2cc\
2G\	2.d\	2g\	2b-\
2D\	.	2f\	[2a/
.	4c\	.	.
=89	=89	=89	=89
1E	2B-\	2e\	4a/]
.	.	.	4g/
.	4A/	2c\	1g
.	4G/	.	.
1D	1A	1d	.
.	.	.	2f#i/
=90	=90	=90	=90
0GG	0G	2r	1g
.	.	2d\	.
.	.	2e\	2r
.	.	2g\	2g/
=91	=91	=91	=91
0r	0r	2f\	2a/
.	.	2e\	2cc\
.	.	2d\	2b-\
.	.	2f\	2a/
=92	=92	=92	=92
0r	1r	2e\	2g/
.	.	1d	2f/
.	2r	.	1e
.	2A/	2c#i\	.
=93	=93	=93	=93
2r	2B-\	1d	1d
2D\	2d\	.	.
2E\	2c\	1r	1r
2G\	2B-\	.	.
=94	=94	=94	=94
2F\	2A/	0r	0r
2E\	2c\	.	.
2D\	2B-\	.	.
2F\	2A/	.	.
=95	=95	=95	=95
2E\	2G/	0r	0r
2D\	2B-\	.	.
2C/	2A/	.	.
2E\	2G/	.	.
=96	=96	=96	=96
1D	2F/	0r	0r
.	2.A/	.	.
2C/	.	.	.
.	4G/	.	.
2BB-/	[2G/	.	.
=97	=97	=97	=97
1AA	2G/]	2r	1r
.	2F#i/	2c\	.
1GG	1G	2.B-\	2r
.	.	.	2g/
.	.	4c\	.
=98	=98	=98	=98
0r	0r	2d\	2.f/
.	.	2e\	.
.	.	.	4g/
.	.	2f\	2a/
.	.	2d\	2b-\
=99	=99	=99	=99
1r	0r	2c\	2cc\
.	.	2d\	2a/
1C	.	1e	2.g/
.	.	.	4a/
=100	=100	=100	=100
2.BB-/	2r	1d	1b-
.	2G/	.	.
4C/	.	.	.
2D\	2.F/	1r	1a
2E\	.	.	.
.	4G/	.	.
=101	=101	=101	=101
2F\	2A/	0r	0r
2D\	2B-\	.	.
2C/	2c\	.	.
2D\	2A/	.	.
=102	=102	=102	=102
2E\	2G/	1r	0r
2F\	2A/	.	.
2G\	2B-\	2r	.
2E\	2c\	2g\	.
=103	=103	=103	=103
1D	2d\	2f\	2r
.	2B-\	2d\	2dd\
1r	1A	2e\	2cc\
.	.	2f\	2a/
=104	=104	=104	=104
0r	0r	2d\	2b-\
.	.	2.e-i\	2.cc\
.	.	4d\	4b-\
.	.	2B-\	[2b-\
=105	=105	=105	=105
1r	1.F	1c	2b-\]
.	.	.	2a/
1BB-	.	1B-	1b-
.	2G/	.	.
=106	=106	=106	=106
2C/	2A/	0r	0r
2D\	2B-\	.	.
2E-i\	2G/	.	.
2C/	2A/	.	.
=107	=107	=107	=107
2D\	2B-\	0r	0r
2.E-i\	1c	.	.
4D\	.	.	.
2BB-/	[2B-\	.	.
=108	=108	=108	=108
1C	2B-\]	0r	0r
.	2A/	.	.
1BB-	1B-	.	.
=109	=109	=109	=109
1.D	2r	1.d	1.f
.	1A	.	.
2D\	2F/	2d\	2f/
=110	=110	=110	=110
2C/	2c\	2e\	2g/
2C/	2c\	2e\	2g/
1D	1A	2d\	2.f/
.	.	[2f\	.
.	.	.	4g/
=111	=111	=111	=111
0r	1F	2f\]	4a/
.	.	.	4b-\
.	.	2e\	1cc
.	2G/	2d\	.
.	2G/	4c\	2b-\
.	.	4B-\	.
=112	=112	=112	=112
1r	0F	1c	2b-\
.	.	.	2a/
1BB-	.	2B-\	2b-\
.	.	2d\	2f/
=113	=113	=113	=113
2D\	2r	2d\	2f/
2C/	2c\	2e\	2g/
2F\	2c\	2f\	2a/
2F\	2A/	2f\	2cc\
=114	=114	=114	=114
1.G	2B-\	1.d	2b-\
.	2c\	.	4a/
.	.	.	4g/
.	1d	.	2b-\
2D\	.	[2f\	[2a/
=115	=115	=115	=115
2F\	2c\	2f\]	2a/]
2G\	2B-\	2e\	1g
1D	1A	1d	.
.	.	.	2f#i/
=116	=116	=116	=116
1GG	1G	2d\	1g
.	.	2g\	.
1r	1r	2f\	2r
.	.	2d\	2dd\
=117	=117	=117	=117
0r	0r	2e\	2cc\
.	.	2d\	2b-\
.	.	2.c\	2cc\
.	.	.	2cc\
.	.	4d\	.
=118	=118	=118	=118
1r	1r	4e\	2g/
.	.	4f\	.
.	.	1g	2b-\
1D	2r	.	1a
.	2d\	2f#i\	.
=119	=119	=119	=119
2G\	2d\	1g	1g
2G\	2B-\	.	.
2F\	2c\	1r	1r
[2E\	2c\	.	.
=120	=120	=120	=120
4E\]	2G/	0r	0r
4D\	.	.	.
2G\	2B-\	.	.
2G\	2A/	.	.
2F#i\	2A/	.	.
=121	=121	=121	=121
1G	1G	2r	2r
.	.	2d\	2b-\
1r	1r	2.e-i\	2.cc\
.	.	4d\	4b-\
=122	=122	=122	=122
0r	0r	2c\	2a/
.	.	2e-i\	2g/
.	.	2d\	2f/
.	.	2B-\	2g/
=123	=123	=123	=123
0r	0r	2c\	2a/
.	.	2d\	1b-
.	.	4G/	.
.	.	4A/	.
.	.	4B-\	4a/
.	.	4c\	4g/
=124	=124	=124	=124
2r	2r	4d\	2f/
.	.	4e\	.
1BB-	1d	1f	1b-
2F\	2c\	2f\	2a/
=125	=125	=125	=125
1G	1B-	1d	1g
1D	1A	[1d	[1f
=126	=126	=126	=126
2r	2r	1d]	1f]
2D\	2A/	.	.
2D\	2B-\	1r	1r
2E\	2G/	.	.
=127	=127	=127	=127
2F\	2A/	2r	2r
2F\	2A/	2d\	2a/
1G	1G	2d\	2b-\
.	.	2e\	2g/
=128	=128	=128	=128
1r	0r	2f\	2a/
.	.	2f\	2a/
2r	.	2g\	2g/
2G\	.	2d\	2b-\
=129	=129	=129	=129
2F\	2r	2f\	2a/
2D\	2d\	2.f\	4f/
.	.	.	4g/
2.F\	2c\	.	4a/
.	.	4e\	4b-\
.	2A/	4c\	[2cc\
4E\	.	4d\	.
=130	=130	=130	=130
4C/	2.c\	2e-i\	4cc\]
4D\	.	.	4b-\
1E-i	.	4d\	2.g/
.	4B-\	4c\	.
.	2G/	2B-\	.
.	.	.	4a/
4D\	[2d\	[2f\	[2b-\
4C/	.	.	.
=131	=131	=131	=131
2BB-/	4d\]	2f\]	2b-\]
.	4c\	.	.
2C/	2B-\	2e\	4a/
.	.	.	4g/
1D	1A	1d	1f#i
=132	=132	=132	=132
0GGl	0Gl	0dl	0gl
==	==	==	==
*-	*-	*-	*-
!!!RDF**kern: l=long note in original notation
!!!RDF**kern: i=editorial accidental
!!!ENC:	Will Watson 07/07/2011
!!!END:	2011/07/07/
!!!EED:	Jesse Rodin
!!!EEV:	2011/12/26/
!!attribution-level@Jos: 4 (questionable)
!!!ONB:	Translated from MusicXML and edited on 2011/12/26/ by Craig Sapp
!!muse2ps: T^@{OPR}^u^@{ONM}{. }@{OTL}^C^@{COM}{/}@{COA}?\n@{SCT}^i2I100v85,85,85,150c95Q16
